X: 11975
T: English Pasby, The
R: three-two
M: 3/2
K: Gmajor
|:D2|G2d2- d2cB A2G2|G2d2 e2f2 g2D2|A2a2- a2gf e2d2|A2d2 ed^c2 d2:|
|:c2|B2e2- e2^d2 e2c2|B2e2 fe^d2 e2B2|A2d2- d2^c2 d2B2|A2d2 ^cdec d2=cB|
A2c2- c2B2 c2BA|GABc defa g2G2|g2fe defd g2G2|g2fe dcBA G2:|

